src/lib/packages/icons/src/assets/line/bell-plus.svg

<svg width="24" height="24" viewBox="0 0 24 24" fill="none" xmlns="http://www.w3.org/2000/svg">
<path d="M14.378 20.378C13.877 21.237 12.988 21.75 12 21.75C11.012 21.75 10.124 21.237 9.62202 20.378C9.41402 20.021 9.53401 19.561 9.89201 19.353C10.248 19.144 10.708 19.265 10.918 19.623C11.377 20.41 12.623 20.41 13.082 19.623C13.291 19.265 13.751 19.144 14.108 19.353C14.466 19.561 14.586 20.021 14.378 20.378ZM20.675 18.325C20.55 18.584 20.288 18.75 20 18.75H4.00001C3.71201 18.75 3.45002 18.584 3.32502 18.325C3.20002 18.065 3.23501 17.757 3.41401 17.532C3.43301 17.509 5.25501 15.189 5.25501 12.5V8.995C5.25501 5.276 8.28101 2.25 12 2.25C15.719 2.25 18.745 5.276 18.745 8.995V12.5C18.745 15.189 20.567 17.509 20.586 17.532C20.765 17.757 20.8 18.065 20.675 18.325ZM18.613 17.25C17.994 16.158 17.245 14.437 17.245 12.5V8.995C17.245 6.103 14.892 3.75 12 3.75C9.10801 3.75 6.75501 6.103 6.75501 8.995V12.5C6.75501 14.437 6.005 16.158 5.387 17.25H18.613ZM14 10.25H12.75V9C12.75 8.586 12.414 8.25 12 8.25C11.586 8.25 11.25 8.586 11.25 9V10.25H10C9.58601 10.25 9.25001 10.586 9.25001 11C9.25001 11.414 9.58601 11.75 10 11.75H11.25V13C11.25 13.414 11.586 13.75 12 13.75C12.414 13.75 12.75 13.414 12.75 13V11.75H14C14.414 11.75 14.75 11.414 14.75 11C14.75 10.586 14.414 10.25 14 10.25Z" fill="currentColor"/>
</svg>

<svg xmlns="http://www.w3.org/2000/svg" width="24" height="24" fill="none"><path fill="currentColor" d="M14.378 20.378A2.73 2.73 0 0 1 12 21.75a2.73 2.73 0 0 1-2.378-1.372.75.75 0 1 1 1.296-.755c.459.787 1.705.787 2.164 0a.75.75 0 0 1 1.296.755Zm6.297-2.053a.75.75 0 0 1-.675.425H4a.75.75 0 0 1-.586-1.218c.019-.023 1.841-2.343 1.841-5.032V8.995A6.753 6.753 0 0 1 12 2.25a6.753 6.753 0 0 1 6.745 6.745V12.5c0 2.689 1.822 5.009 1.841 5.032a.751.751 0 0 1 .089.793Zm-2.062-1.075c-.619-1.092-1.368-2.813-1.368-4.75V8.995A5.251 5.251 0 0 0 12 3.75a5.251 5.251 0 0 0-5.245 5.245V12.5c0 1.937-.75 3.658-1.368 4.75h13.226Zm-4.613-7h-1.25V9a.75.75 0 0 0-1.5 0v1.25H10a.75.75 0 0 0 0 1.5h1.25V13a.75.75 0 0 0 1.5 0v-1.25H14a.75.75 0 0 0 0-1.5Z"/></svg>
